common/src/main/resources/icons/expui/general/inspections/inspectionsPowerSaveMode.svg

<svg xmlns="http://www.w3.org/2000/svg" width="16" height="16" data-big="true" viewBox="0 0 24 24"><path fill="#FF9800" d="M11.45 2v3.55L15 3.77zm-1 6L8 10.46l3.75 1.25zM2 11.45 3.77 15l1.78-3.55zM10 2H2v8c.57.17 1.17.25 1.77.25 3.58.01 6.49-2.9 6.5-6.5-.01-.59-.1-1.18-.27-1.75m7 20v-6h-3l5-9v6h3z"/></svg>

<!--
  - The MIT License (MIT)
  -
  - Copyright (c) 2015-2024 Elior "Mallowigi" Boukhobza
  -
  - Permission is hereby granted, free of charge, to any person obtaining a copy
  - of this software and associated documentation files (the "Software"), to deal
  - in the Software without restriction, including without limitation the rights
  - to use, copy, modify, merge, publish, distribute, sublicense, and/or sell
  - copies of the Software, and to permit persons to whom the Software is
  - furnished to do so, subject to the following conditions:
  -
  - The above copyright notice and this permission notice shall be included in all
  - copies or substantial portions of the Software.
  -
  - THE SOFTWARE IS PROVIDED "AS IS", WITHOUT WARRANTY OF ANY KIND, EXPRESS OR
  - IMPLIED, INCLUDING BUT NOT LIMITED TO THE WARRANTIES OF MERCHANTABILITY,
  - FITNESS FOR A PARTICULAR PURPOSE AND NONINFRINGEMENT. IN NO EVENT SHALL THE
  - AUTHORS OR COPYRIGHT HOLDERS BE LIABLE FOR ANY CLAIM, DAMAGES OR OTHER
  - LIABILITY, WHETHER IN AN ACTION OF CONTRACT, TORT OR OTHERWISE, ARISING FROM,
  - OUT OF OR IN CONNECTION WITH THE SOFTWARE OR THE USE OR OTHER DEALINGS IN THE
  - SOFTWARE.
  -->


<svg data-big="true" xmlns="http://www.w3.org/2000/svg" version="1.1" width="16px" height="16px" viewBox="0 0 24 24">
  <path fill="#FF9800"
        d="M11.45,2V5.55L15,3.77L11.45,2M10.45,8L8,10.46L11.75,11.71L10.45,8M2,11.45L3.77,15L5.55,11.45H2M10,2H2V10C2.57,10.17 3.17,10.25 3.77,10.25C7.35,10.26 10.26,7.35 10.27,3.75C10.26,3.16 10.17,2.57 10,2M17,22V16H14L19,7V13H22L17,22Z"/>
</svg>
